Gruvbox-Plus-Dark/actions/16/snap-nodes-path.svg

<svg xmlns="http://www.w3.org/2000/svg" width="16" height="16" viewBox="0 0 16 16">
 <defs>
  <style id="current-color-scheme" type="text/css">
   .ColorScheme-Text { color:#ebdbb2; } .ColorScheme-Highlight { color:#458588; }
  </style>
 </defs>
 <path style="fill:currentColor" class="ColorScheme-Text" d="M 1.0058594 1.4941406 L 1.0195312 1.5 A 0.50005 0.50005 0 0 0 0.9375 2.4960938 C 0.9375 2.4960938 4.6236281 3.0112381 7.2363281 4.6738281 C 8.5427281 5.5051381 9.5440688 6.5832406 9.7929688 7.9941406 C 10.041949 9.4050406 9.5606013 11.255353 7.6132812 13.689453 A 0.50005 0.50005 0 0 0 7.9941406 14.5 C 11.613141 14.5 13.564497 13.165409 14.529297 11.787109 C 15.489297 10.407109 15.488281 8.9960938 15.488281 8.9960938 A 0.50005 0.50005 0 1 0 14.488281 8.9960938 C 14.488281 8.9960938 14.488325 10.087284 13.703125 11.208984 C 13.017775 12.188054 11.522291 13.071 8.9628906 13.3125 C 10.394391 11.2069 11.031219 9.3412531 10.761719 7.8144531 C 10.448199 6.0378531 9.2014125 4.7428187 7.7578125 3.8242188 C 4.8705125 1.9868188 1.0546875 1.5 1.0546875 1.5 A 0.50005 0.50005 0 0 0 1.0058594 1.4941406 z"/>
</svg>

<svg width="16" height="16" version="1.1" viewBox="0 0 16 16" xmlns="http://www.w3.org/2000/svg">
  <defs>
    <style type="text/css">.ColorScheme-Text { color:#ebdbb2; } .ColorScheme-Highlight { color:#458588; }</style>
  </defs>
  <path class="ColorScheme-Text" d="m1.014 1.497 0.01367 0.00586a0.5 0.5 0 0 0-0.08203 0.9961s3.686 0.5151 6.299 2.178c1.306 0.8313 2.308 1.909 2.557 3.32 0.249 1.411-0.2324 3.261-2.18 5.695a0.5 0.5 0 0 0 0.3809 0.8105c3.619 0 5.57-1.335 6.535-2.713 0.96-1.38 0.959-2.791 0.959-2.791a0.5 0.5 0 1 0-1 0s4.4e-5 1.091-0.7852 2.213c-0.6854 0.9791-2.181 1.862-4.74 2.104 1.431-2.106 2.068-3.971 1.799-5.498-0.3135-1.777-1.56-3.072-3.004-3.99-2.887-1.837-6.703-2.324-6.703-2.324a0.5 0.5 0 0 0-0.04883-0.00586z" fill="currentColor"/>
</svg>
